src/icons/brand/glyph/PayPalIcon.svg

<svg width="24" height="24" viewBox="0 0 24 24" fill="none" xmlns="http://www.w3.org/2000/svg">
<path fill-rule="evenodd" clip-rule="evenodd" d="M18.0048 3.5081C17.0711 2.45249 15.384 2 13.225 2H6.96023C6.5186 2 6.14312 2.31874 6.07382 2.75061L3.46497 19.1641C3.41331 19.4878 3.66597 19.781 3.99672 19.781H7.86429L8.83574 13.6686L8.8055 13.8598C8.8748 13.4279 9.24778 13.1092 9.68878 13.1092H11.5265C15.1376 13.1092 17.9645 11.6542 18.7904 7.44553C18.815 7.32053 18.8547 7.08118 18.8547 7.08118C19.089 5.5237 18.8528 4.46684 18.0048 3.5081ZM19.8337 7.87835C18.9353 12.022 16.0713 14.2151 11.5265 14.2151H9.8784L8.64928 22H11.3224C11.7086 22 12.0368 21.7213 12.0973 21.3431L12.1288 21.1781L12.7436 17.3145L12.7833 17.1013C12.8432 16.7232 13.1721 16.4445 13.5576 16.4445H14.0459C17.204 16.4445 19.6774 15.1713 20.4 11.4902C20.6898 10.0127 20.5506 8.77396 19.8337 7.87835Z" fill="currentColor"/>
</svg>

<svg xmlns="http://www.w3.org/2000/svg" width="24" height="24" fill="currentColor" viewBox="0 0 24 24">
  <path fill-rule="evenodd" d="M18.005 3.508C17.07 2.452 15.384 2 13.225 2H6.96a.896.896 0 0 0-.886.75L3.465 19.165a.535.535 0 0 0 .532.617h3.867l.972-6.112-.03.19a.893.893 0 0 1 .883-.75h1.838c3.61 0 6.438-1.455 7.263-5.663.025-.125.065-.365.065-.365.234-1.557-.002-2.614-.85-3.573Zm1.829 4.37c-.899 4.144-3.763 6.337-8.307 6.337H9.878L8.65 22h2.673a.783.783 0 0 0 .775-.657l.032-.165.615-3.864.04-.213a.782.782 0 0 1 .774-.656h.488c3.158 0 5.631-1.274 6.354-4.955.29-1.477.15-2.716-.566-3.612Z" clip-rule="evenodd"/>
</svg>
